X: 6
T: Beaux of London City
O: Adderbury
P: A4(A4B2)6
M: 9/8
L: 1/8
Z: 2014 John Chambers <jc:trillian.mit.edu>
S: handwritten MS by John Chambers (1970s)
K: G
D "A"\
|: "G"G2G BAG B<dD | "G"G2G "D7"B2A "G"G2z :|\
"B"\
|: "G"d2c BAG Bd2 | "D7"A2A A2B c3 | "G"d2c BAG B<dD | "G"G2G "D7"B2A "G"G2z :|


